!!!COM:	Stravinsky
!!!OTL:	399_Str-57/25-26/189
**kern	**kern	**kern	**kern
*part4	*part3	*part2	*part1
*staff4	*staff3	*staff2	*staff1
*I"BASS 2	*I"BASS 1	*I"TENOR 2	*I"TENOR 1
*I'B.	*I'B.	*I'T.	*I'T.
*clefF4	*clefF4	*clefG2	*clefGv2
*k[]	*k[]	*k[]	*k[]
*C:	*C:	*C:	*C:
*M4/4	*M4/4	*M4/4	*M4/4
=1	=	=	=
1D#X	1r	1r	1r
=2	=2	=2	=2
1E	1r	1r	1r
=3	=3	=3	=3
(2AA	2r	1r	1r
2FF)	2F	.	.
=4	=4	=4	=4
2BB-X	2F	1B-X	1r
[2GG	(4F	.	.
.	4E)	.	.
=5	=5	=5	=5
2GG]	2E	1Bn	2d-X
([2C	(2F	.	2d-
=6	=6	=6	=6
2C]	2E)	(2E	(4d-X
.	.	.	4c)
2A-X)	(2E	2C)	2c
=7	=7	=7	=7
2C-X	2F)	2F	2d
[2D	2F	[2D	2c
=8	=8	=8	=8
4D]	(4A	2D]	2c
4r	2E)	.	.
2r	.	([2G	2d
.	4r	.	.
=9	=9	=9	=9
2r	2r	2G]	2d
2r	(4A	2e-X)	4f
.	4En)	.	[4c
=10	=10	=10	=10
!!linebreak:original
2r	4E	2G-X	4c]
.	2E	.	2.c
2C#X	.	[2An	.
.	4E	.	.
=11	=11	=11	=11
4F#X	(4F#X	4A]	(4fn
4E-X	4G)	4r	4c)
2Dn	2G	2r	4c
.	.	.	[4c
=12	=12	=12	=12
1AAn	2C	1r	4c]
.	.	.	4c
.	2A-X	.	4dn
.	.	.	4e-X
=13	=13	=13	=13
2C#X	4D-X	2r	2e-X
.	2B-X	.	.
[2GG#X	.	2A-X	2A-X
.	4E-X	.	.
=14	=14	=14	=14
2GG#]	2Bn	4d-X	2en
.	.	4B-X	.
2BB#X	2Dn	2An	4An
.	.	.	[4f#X
=15	=15	=15	=15
2F#X	1r	1En	4f#]
.	.	.	4Bn
[2AA#X	.	.	2g
=16	=16	=16	=16
!!linebreak:original
2AA#]	1r	2G#X	2B-X
2GGn	.	[2D#X	2r
=17	=17	=17	=17
1En	1r	2D#]	1r
.	.	2F#X	.
=18	=18	=18	=18
1Fn	1r	2c#X	1r
.	.	[2Fn	.
=19	=19	=19	=19
[1Cn	1r	2F]	1r
.	.	2Dn	.
=20	=20	=20	=20
1C_	1r	1Bn	1r
=21	=21	=21	=21
1C_	1r	1cn	1r
=22	=22	=22	=22
1C]	1r	1Gn	1r
==	==	==	==
*-	*-	*-	*-
!!!system-decoration: [(s1,s2,s3,s4)]
!!!ONB: Converted from MusicXML on 2020/01/17
